src/status/22/printer-symbolic.svg

<svg viewBox="0 0 22 22" xmlns="http://www.w3.org/2000/svg">
 <path d="m5.5 3c-0.276 0-0.5 0.224-0.5 0.5v6.5h-1.5c-0.277 0-0.5 0.223-0.5 0.5v6c0 0.277 0.223 0.5 0.5 0.5h1.5v1.5c0 0.277 0.223 0.5 0.5 0.5h11c0.277 0 0.5-0.223 0.5-0.5v-1.5h1.5c0.277 0 0.5-0.223 0.5-0.5v-6c0-0.277-0.223-0.5-0.5-0.5h-1.5v-5l-2-2h-9.5zm0.5 1h8v2h2v4h-10v-6zm-2 7h14v3h-14v-3zm2 4h10v3h-10v-3zm11.5 0a0.5 0.5 0 0 1 0.5 0.5 0.5 0.5 0 0 1-0.5 0.5 0.5 0.5 0 0 1-0.5-0.5 0.5 0.5 0 0 1 0.5-0.5z" color-rendering="auto" fill="#2e3440" image-rendering="auto" shape-rendering="auto"/>
</svg>

<svg viewBox="0 0 22 22" xmlns="http://www.w3.org/2000/svg">
 <path d="M 5.5 3 C 5.224 3 5 3.224 5 3.5 L 5 10 L 3.5 10 C 3.223 10 3 10.223 3 10.5 L 3 16.5 C 3 16.777 3.223 17 3.5 17 L 5 17 L 5 18.5 C 5 18.777 5.223 19 5.5 19 L 16.5 19 C 16.777 19 17 18.777 17 18.5 L 17 17 L 18.5 17 C 18.777 17 19 16.777 19 16.5 L 19 10.5 C 19 10.223 18.777 10 18.5 10 L 17 10 L 17 5 L 15 3 L 5.5 3 z M 6 4 L 14 4 L 14 6 L 16 6 L 16 10 L 6 10 L 6 4 z M 4 11 L 18 11 L 18 14 L 4 14 L 4 11 z M 6 15 L 16 15 L 16 18 L 6 18 L 6 15 z M 17.5 15 A 0.5 0.5 0 0 1 18 15.5 A 0.5 0.5 0 0 1 17.5 16 A 0.5 0.5 0 0 1 17 15.5 A 0.5 0.5 0 0 1 17.5 15 z " style="visibility:visible;shape-rendering:auto;color-interpolation-filters:linearRGB;fill:#2e3440;opacity:1;image-rendering:auto;fill-opacity:1;text-rendering:auto;stroke:none;display:inline;color:#000;fill-rule:nonzero;color-rendering:auto;color-interpolation:sRGB"/>
</svg>
